X:1
T:Long Ago in Bethlehem
T:W. A. Post
T:Long Ago in Bethlehem
T:Public Domain
T:Public Domain
C:W. A. Post
Z:Public Domain
%%score ( 1 2 ) ( 3 4 )
L:1/8
M:2/4
K:Eb
V:1 treble 
V:2 treble 
V:3 bass 
V:4 bass 
V:1
 [EG][GB] [FA][DF] | E[EG] [EG]2 | [DF][FA] [FA][DF] | [EG][GB] [GB]2 | %4
w: 1.~Long a- go in|Beth- le- hem,|a- way a- cross|the sea, Je-|
w: 2.~Je- sus, now in|Heav’n a- bove,|the child- ren, loves|them all, Helps|
 [EG][GB] [FA][DF]E[EG] [EG]2 | [DF][FB] [E=A][Ec] | [DB]4 | [DB][DA] [DA]D | [DF]E E2 | %9
w: sus lived, a lit- tle child, Just|you and me; Shep-|herds|knelt be- side His|Wise men, from|
w: them to be kind and good, Hears|when they call; Gifts|more|pre- cious we may|Than the wise|
 [EG][DF] [DF][DF] | [FA][EG] [EG]2 | [EG]>[EG] [DA][_DB] | [_DB][CA] [CA]2 | [B,D][DA] [DG]>[DF] | %14
w: a- far, Brought to|Him their cost-|ly gifts, Guid- ed|by the star.|Long a- go in|
w: of old, For He|counts the child-|ren’s love Dear- er|far than gold.||
 E4 ||[M:3/4]"^Refrain" G4 c2 | B4 G2 | A4 d2 | c6 | F4 B2 | A4 D2 | E4 c2 | B6 | G4 A2 | B4 =B2 | %25
w: Beth-|hem, Je-|sus lived,|a child|like|me; King|of all|the child-|ren’s|hearts, Our|dear- est|
w: |||||||||||
 c4 c2 | c4 c2 | (F2 [EG]2) [FA]2 | [EG]4 [DF]2 | B,4 C2 | [B,E]4 z2 |] %31
w: friend is|He. *|||||
w: ||||||
V:2
 x4 | E x3 | x4 | x4 | x4 E x3 | x4 | x4 | x3 D | x E E2 | x4 | x4 | x4 | x4 | x4 | E4 || %15
w: |Far|||like|||bed;|the lands||||||le-|
w: |Knows|||them|||bring|men brought,|||||||
[M:3/4] x6 | x6 | x6 | x6 | x6 | x6 | x6 | x6 | x6 | x6 | x6 | x6 | F2 x4 | x6 | E6- | x6 |] %31
w: ||||||||||||||||
w: ||||||||||||||||
V:3
 [E,B,][E,B,] [B,,B,][B,,A,] | [E,G,][E,B,] [E,B,]2 | [B,,B,][B,,B,] [B,,B,][B,,B,] | %3
 [E,B,][E,E] [E,E]2 | [E,B,][E,B,] [B,,B,][B,,A,][E,G,][E,B,] [E,B,]2 | [F,B,][F,D] [F,C][F,=A,] | %6
 [B,,B,]4 | [B,,F,][B,,F,] [B,,F,][B,,A,] | [B,,A,][E,G,] [E,G,]2 | [B,,B,][B,,B,] [B,,B,][B,,B,] | %10
 [E,B,][E,B,] [E,B,]2 | [E,B,]>[E,B,] [F,B,][G,B,] | A,A, [A,,A,]2 | %13
 [B,,F,][B,,C] [B,,B,]>[B,,A,] | [E,G,]4 ||[M:3/4] (E,2 [B,E]2) [B,E]2 | (G,2 [B,E]2) [B,E]2 | %17
 (F,2 [A,B,D]2) [A,B,D]2 | (B,,2 [A,B,D]2 [A,B,D]2) | (D,2 [F,B,]2) [F,B,]2 | %20
 (B,,2 [F,B,]2) [F,B,]2 | (E,2 [G,B,]2) [G,B,]2 | (B,,2 [G,B,]2 [G,B,]2) | (E,2 [B,E]2) [B,E]2 | %24
 (G,2 [B,E]2) [B,E]2 | (A,2 [CE]2) [G,C=E]2 | [F,=A,_E]4 z2 | ([A,C]2 [G,C]2) [F,C]2 | %28
 B,4 [B,,A,]2 | G,4 A,2 | [E,G,]4 z2 |] %31
V:4
 x4 | x4 | x4 | x4 | x8 | x4 | x4 | x4 | x4 | x4 | x4 | x4 | A,A, x2 | x4 | x4 ||[M:3/4] x6 | x6 | %17
 x6 | x6 | x6 | x6 | x6 | x6 | x6 | x6 | x6 | x6 | x6 | B,4 x2 | E,6- | x6 |] %31

